src/assets/dragon.svg

<?xml version="1.0" encoding="UTF-8" standalone="no"?>
<!DOCTYPE svg PUBLIC "-//W3C//DTD SVG 1.1//EN" "http://www.w3.org/Graphics/SVG/1.1/DTD/svg11.dtd">
<svg version="1.0" xmlns="http://www.w3.org/2000/svg"
 width="530.000000pt" height="458.000000pt" viewBox="0 0 530.000000 458.000000"
 preserveAspectRatio="xMidYMid meet">
<g transform="translate(0.000000,458.000000) scale(0.100000,-0.100000)"
fill="#000000" stroke="none">
<path d="M961 4575 c-1 -6 11 -28 25 -49 36 -53 602 -806 625 -832 24 -25 24
-40 2 -49 -20 -7 -172 -56 -268 -85 -33 -10 -229 -71 -435 -135 -206 -64 -403
-125 -437 -135 -69 -20 -83 -27 -83 -40 0 -4 89 -53 198 -109 633 -321 579
-287 723 -451 41 -47 97 -110 125 -140 29 -30 65 -71 80 -90 16 -19 31 -37 34
-40 3 -3 39 -43 80 -90 41 -47 77 -87 80 -90 3 -3 34 -39 70 -80 36 -41 79
-91 97 -110 17 -19 41 -47 53 -63 l21 -27 471 0 470 0 517 -389 c284 -213 642
-483 795 -599 154 -116 283 -209 287 -207 3 3 12 84 18 182 7 98 16 231 22
296 5 65 6 124 2 131 -5 7 -131 122 -281 255 -150 133 -277 252 -283 264 -5
12 -55 148 -112 302 l-102 279 -375 349 c-443 411 -546 502 -694 612 -215 159
-826 568 -1366 912 -107 69 -225 145 -262 169 -37 24 -72 44 -77 44 -5 0 -12
6 -14 13 -3 6 -6 7 -6 2z m1743 -1577 c108 -104 292 -274 443 -412 23 -21 40
-43 37 -47 -3 -5 -39 -9 -79 -9 -78 0 -71 -2 -212 76 -27 15 -80 44 -120 65
-146 78 -138 72 -137 115 1 21 6 68 12 104 19 121 27 136 56 108z"/>
<path d="M989 2706 c-2 -3 -40 -9 -84 -15 -168 -22 -728 -104 -832 -122 -35
-6 -63 -15 -63 -19 0 -4 116 -85 257 -180 616 -415 1037 -699 1153 -779 81
-55 214 -165 375 -311 138 -124 352 -315 475 -425 123 -110 249 -224 280 -252
31 -29 69 -62 83 -73 l26 -21 238 80 c131 43 337 111 458 151 121 40 227 76
235 82 21 13 -114 5 -538 -33 l-132 -12 -93 72 c-186 143 -743 579 -918 717
-115 91 -120 97 -289 331 -95 131 -190 261 -210 288 -66 90 -223 309 -300 418
-54 77 -81 107 -96 107 -11 0 -23 -2 -25 -4z"/>
<path d="M3355 1264 c11 -17 54 -74 95 -128 351 -458 382 -501 421 -585 21
-47 49 -106 62 -131 l22 -45 65 2 c58 1 265 10 650 29 l125 6 115 -97 c122
-102 170 -144 287 -243 40 -34 74 -62 77 -62 15 0 2 37 -55 156 -33 71 -77
165 -97 208 -20 44 -53 112 -72 150 l-35 71 -125 11 c-69 6 -215 17 -325 23
-110 7 -248 17 -307 21 l-107 9 -138 109 c-733 575 -687 541 -658 496z"/>
</g>
</svg>

<?xml version="1.0" standalone="no"?>
<!DOCTYPE svg PUBLIC "-//W3C//DTD SVG 1.0//EN" "http://www.w3.org/TR/2001/REC-SVG-20010904/DTD/svg10.dtd">
<svg xmlns="http://www.w3.org/2000/svg" xmlns:xlink="http://www.w3.org/1999/xlink" id="body_1" width="105" height="90">

<g transform="matrix(0.1953125 0 0 0.1953125 0 0)">
	<g transform="matrix(0.1 0 -0 -0.1 0 458)">
        <path d="M961 4575C 960 4569 972 4547 986 4526C 1022 4473 1588 3720 1611 3694C 1635 3669 1635 3654 1613 3645C 1593 3638 1441 3589 1345 3560C 1312 3550 1116 3489 910 3425C 704 3361 507 3300 473 3290C 404 3270 390 3263 390 3250C 390 3246 479 3197 588 3141C 1221 2820 1167 2854 1311 2690C 1352 2643 1408 2580 1436 2550C 1465 2520 1501 2479 1516 2460C 1532 2441 1547 2423 1550 2420C 1553 2417 1589 2377 1630 2330C 1671 2283 1707 2243 1710 2240C 1713 2237 1744 2201 1780 2160C 1816 2119 1859 2069 1877 2050C 1894 2031 1918 2003 1930 1987L1930 1987L1951 1960L2422 1960L2892 1960L3409 1571C 3693 1358 4051 1088 4204 972C 4358 856 4487 763 4491 765C 4494 768 4503 849 4509 947C 4516 1045 4525 1178 4531 1243C 4536 1308 4537 1367 4533 1374C 4528 1381 4402 1496 4252 1629C 4102 1762 3975 1881 3969 1893C 3964 1905 3914 2041 3857 2195L3857 2195L3755 2474L3380 2823C 2937 3234 2834 3325 2686 3435C 2471 3594 1860 4003 1320 4347C 1213 4416 1095 4492 1058 4516C 1021 4540 986 4560 981 4560C 976 4560 969 4566 967 4573C 964 4579 961 4580 961 4575zM2704 2998C 2812 2894 2996 2724 3147 2586C 3170 2565 3187 2543 3184 2539C 3181 2534 3145 2530 3105 2530C 3027 2530 3034 2528 2893 2606C 2866 2621 2813 2650 2773 2671C 2627 2749 2635 2743 2636 2786C 2637 2807 2642 2854 2648 2890C 2667 3011 2675 3026 2704 2998z" stroke="none" fill="#000000" fill-rule="nonzero" />
        <path d="M989 2706C 987 2703 949 2697 905 2691C 737 2669 177 2587 73 2569C 38 2563 10 2554 10 2550C 10 2546 126 2465 267 2370C 883 1955 1304 1671 1420 1591C 1501 1536 1634 1426 1795 1280C 1933 1156 2147 965 2270 855C 2393 745 2519 631 2550 603C 2581 574 2619 541 2633 530L2633 530L2659 509L2897 589C 3028 632 3234 700 3355 740C 3476 780 3582 816 3590 822C 3611 835 3476 827 3052 789L3052 789L2920 777L2827 849C 2641 992 2084 1428 1909 1566C 1794 1657 1789 1663 1620 1897C 1525 2028 1430 2158 1410 2185C 1344 2275 1187 2494 1110 2603C 1056 2680 1029 2710 1014 2710C 1003 2710 991 2708 989 2706z" stroke="none" fill="#000000" fill-rule="nonzero" />
        <path d="M3355 1264C 3366 1247 3409 1190 3450 1136C 3801 678 3832 635 3871 551C 3892 504 3920 445 3933 420L3933 420L3955 375L4020 377C 4078 378 4285 387 4670 406L4670 406L4795 412L4910 315C 5032 213 5080 171 5197 72C 5237 38 5271 10 5274 10C 5289 10 5276 47 5219 166C 5186 237 5142 331 5122 374C 5102 418 5069 486 5050 524L5050 524L5015 595L4890 606C 4821 612 4675 623 4565 629C 4455 636 4317 646 4258 650L4258 650L4151 659L4013 768C 3280 1343 3326 1309 3355 1264z" stroke="none" fill="#000000" fill-rule="nonzero" />
	</g>
</g>
</svg>
